Adwaita++/devices/16/audio-card.svg

<svg height="16.014" width="16.014" xmlns="http://www.w3.org/2000/svg">
  <g fill="#474747">
    <path d="m13 1a1 1 0 0 0 -1 1v13a1 1 0 1 0 2 0v-12h1a1 1 0 1 0 0-2z"/>
    <path d="m13 6v3h3v-3zm1 1h1v1h-1zm-1 3v3h3v-3zm1 1h1v1h-1z"/>
    <path d="m0 4v12h10v-2h1v-2h-3v2h-6v-8h3v-2h-1z"/>
    <path d="m6 1 5 4h-3v4.531h-2z"/>
    <path d="m7.995 9.505a2.495 2.495 0 0 1 -2.495 2.495 2.495 2.495 0 0 1 -2.495-2.495 2.495 2.495 0 0 1 2.495-2.495 2.495 2.495 0 0 1 2.495 2.495z"/>
  </g>
</svg>

<svg xmlns="http://www.w3.org/2000/svg" width="16.014" height="16.014">
    <g fill="#474747">
        <path d="M13 1a1 1 0 0 0-1 1v13a1 1 0 1 0 2 0V3h1a1 1 0 1 0 0-2z" style="line-height:normal;font-variant-ligatures:normal;font-variant-position:normal;font-variant-caps:normal;font-variant-numeric:normal;font-variant-alternates:normal;font-feature-settings:normal;text-indent:0;text-align:start;text-decoration-line:none;text-decoration-style:solid;text-decoration-color:#000;text-transform:none;text-orientation:mixed;shape-padding:0;isolation:auto;mix-blend-mode:normal" color="#000" font-weight="400" font-family="sans-serif" white-space="normal" overflow="visible"/>
        <path d="M13 6v3h3V6zm1 1h1v1h-1zM13 10v3h3v-3zm1 1h1v1h-1z" style="line-height:normal;font-variant-ligatures:normal;font-variant-position:normal;font-variant-caps:normal;font-variant-numeric:normal;font-variant-alternates:normal;font-feature-settings:normal;text-indent:0;text-align:start;text-decoration-line:none;text-decoration-style:solid;text-decoration-color:#000;text-transform:none;text-orientation:mixed;shape-padding:0;isolation:auto;mix-blend-mode:normal;marker:none" color="#000" font-weight="400" font-family="sans-serif" white-space="normal" overflow="visible"/>
        <path d="M0 4v12h10v-2h1v-2H8v2H2V6h3V4H4z" style="line-height:normal;font-variant-ligatures:normal;font-variant-position:normal;font-variant-caps:normal;font-variant-numeric:normal;font-variant-alternates:normal;font-feature-settings:normal;text-indent:0;text-align:start;text-decoration-line:none;text-decoration-style:solid;text-decoration-color:#000;text-transform:none;text-orientation:mixed;shape-padding:0;isolation:auto;mix-blend-mode:normal" color="#000" font-weight="400" font-family="sans-serif" white-space="normal" overflow="visible"/>
        <path d="M6 1l5 4H8v4.531H6z"/>
        <path d="M7.995 9.505A2.495 2.495 0 0 1 5.5 12a2.495 2.495 0 0 1-2.495-2.495A2.495 2.495 0 0 1 5.5 7.01a2.495 2.495 0 0 1 2.495 2.495z"/>
    </g>
</svg>
